assets/media/icons/brands/xilinx.svg

<?xml version="1.0" standalone="no"?>
<!DOCTYPE svg PUBLIC "-//W3C//DTD SVG 1.0//EN" "http://www.w3.org/TR/2001/REC-SVG-20010904/DTD/svg10.dtd">
<svg xmlns="http://www.w3.org/2000/svg" xmlns:xlink="http://www.w3.org/1999/xlink" id="body_1" width="1800" height="1200">

<defs>
        <clipPath  id="1">

            <path clip-rule="evenodd" d="M20 0.051L110 0.051L110 21.957L20 21.957L20 0.051z" />        </clipPath>
</defs>

<g transform="matrix(12.168165 0 0 12.168165 206.85881 460.9149)">
	<g>
	</g>
    <path d="M4.773 10.953L0 16.43L7.01 16.43L11.768 10.953L4.773 10.953zM7.01 5.477L11.767 0.001L16.526001 5.478L21.285 0.001L4.773 0L0 5.477" stroke="none" fill="#EE3124" fill-rule="nonzero" />
	<g>
	</g>
    <path d="M4.773 10.953L0 16.43L7.01 16.43L11.768 10.953L4.773 10.953zM7.01 5.477L11.767 0.001L16.526001 5.478L21.285 0.001L4.773 0L0 5.477" stroke="none" fill="#EE3124" fill-rule="nonzero" />
	<g transform="matrix(1 0 -0 -1 0 21.907)">
	</g>
    <path transform="matrix(1 0 -0 -1 0 21.907)"  d="M4.773 10.953L0 16.43L7.01 16.43L11.768 10.953L4.773 10.953zM7.01 5.477L11.767 0.001L16.526001 5.478L21.285 0.001L4.773 0L0 5.477" stroke="none" fill="#B20838" fill-rule="nonzero" />
	<g transform="matrix(1 0 0 1 -0.1 -0.05)">
	</g>
    <path transform="matrix(1 0 0 1 -0.1 -0.05)"  clip-path="url(#1)"  d="M28.9964 27L46.6538 -3L30.627802 -3L49.762 29.5082L49.762 -3L56.0345 -3L56.0345 20.881L66.344 20.881zM69.8465 -1L69.8465 27L76.1185 27L76.1185 0.05L89.7555 21.953L89.7555 -8.2318L110.4897 27L91.2027 27L108.858696 -3" stroke="#000000" stroke-width="2.63" fill="none" />
	<g>
	</g>
    <path d="M111.42 17.19C 110.11 17.19 109.049995 18.24 109.049995 19.550001C 109.049995 20.85 110.10999 21.910002 111.42 21.900002C 112.729996 21.900002 113.79 20.850002 113.79 19.550001C 113.79 18.25 112.73 17.2 111.42 17.19zM111.42 17.54C 112.49 17.54 113.36 18.44 113.36 19.550001C 113.36 20.660002 112.49 21.560001 111.42 21.560001C 110.34 21.560001 109.47 20.660002 109.47 19.550001C 109.47 18.44 110.340004 17.54 111.42 17.54zM111.56 18.17C 111.88 18.17 112.25 18.23 112.42 18.52C 112.56 18.77 112.56 19.09 112.42 19.35C 112.29 19.58 112.03 19.69 111.77 19.720001L111.77 19.720001L112.56 20.94L112.1 20.94L111.35 19.75L110.9 19.75L110.9 20.94L110.47 20.94L110.47 18.18zM111.38 19.39C 111.549995 19.39 111.729996 19.39 111.89 19.32C 112.09 19.23 112.13 18.99 112.07 18.789999C 111.97 18.63 111.85 18.56 111.7 18.539999C 111.6 18.529999 111.53999 18.519999 111.45 18.519999L111.45 18.519999L110.93 18.519999L110.93 19.399998" stroke="none" fill="#000000" fill-rule="nonzero" />
</g>
</svg>

<svg xmlns="http://www.w3.org/2000/svg" xmlns:xlink="http://www.w3.org/1999/xlink" height="800" width="1200" viewBox="-17.0685 -5.47675 147.927 32.8605"><defs><clipPath id="b"><path d="M20 .051h90v21.906H20z"/></clipPath></defs><path id="a" d="M4.773 10.953L0 16.43h7.01l4.758-5.477zM7.01 5.477L11.767.001l4.759 5.477L21.285.001 4.773 0 0 5.477"/><use height="100%" width="100%" xlink:href="#a" fill="#ee3124"/><use height="100%" width="100%" transform="matrix(1 0 0 -1 0 21.907)" xlink:href="#a" fill="#b20838"/><path transform="translate(-.1 -.05)" clip-path="url(#b)" d="M28.9964 27L46.6538-3h-16.026L49.762 29.5082V-3h6.2725v23.881H66.344M69.8465-1v28h6.272V.05l13.637 21.903V-8.2318L110.4897 27h-19.287l17.656-30" fill="none" stroke="#000" stroke-width="2.63"/><path d="M111.42 17.19c-1.31 0-2.37 1.05-2.37 2.36 0 1.3 1.06 2.36 2.37 2.35 1.31 0 2.37-1.05 2.37-2.35s-1.06-2.35-2.37-2.36zm0 .35c1.07 0 1.94.9 1.94 2.01 0 1.11-.87 2.01-1.94 2.01-1.08 0-1.95-.9-1.95-2.01 0-1.11.87-2.01 1.95-2.01zm.14.63c.32 0 .69.06.86.35.14.25.14.57 0 .83-.13.23-.39.34-.65.37l.79 1.22h-.46l-.75-1.19h-.45v1.19h-.43v-2.76zm-.18 1.22c.17 0 .35 0 .51-.07.2-.09.24-.33.18-.53-.1-.16-.22-.23-.37-.25-.1-.01-.16-.02-.25-.02h-.52v.88"/></svg>
